dhis-2/dhis-support/dhis-support-system/src/main/resources/SVGs/male_and_female_positive.svg

<svg width="48" height="48" viewBox="0 0 48 48" fill="none" xmlns="http://www.w3.org/2000/svg">
<path fill-rule="evenodd" clip-rule="evenodd" d="M13.6889 8.09766C13.2292 8.09766 12.7741 8.18819 12.3494 8.3641C11.9248 8.54001 11.5389 8.79784 11.2139 9.12288C10.8889 9.44791 10.6311 9.83378 10.4553 10.2584C10.2794 10.6831 10.1889 11.1383 10.1889 11.5979C10.1889 12.5262 10.5577 13.4164 11.214 14.0728C11.8704 14.7291 12.7606 15.0979 13.6889 15.0979C14.6171 15.0979 15.5074 14.7291 16.1637 14.0728C16.8201 13.4164 17.1888 12.5262 17.1888 11.5979C17.1889 11.1383 17.0984 10.6831 16.9225 10.2584C16.7466 9.83378 16.4888 9.44791 16.1638 9.12288C15.8388 8.79784 15.453 8.54001 15.0283 8.3641C14.6037 8.18819 14.1485 8.09766 13.6889 8.09766ZM34.7266 8.09766C32.7936 8.09766 31.2267 9.66464 31.2267 11.5979C31.2267 13.5309 32.7936 15.0979 34.7266 15.0979C36.6596 15.0979 38.2266 13.5309 38.2266 11.5979C38.2266 9.66464 36.6596 8.09766 34.7266 8.09766ZM13.3419 15.9589L10.1539 15.9609V15.9689C9.58153 15.9799 9.03494 16.2959 8.76554 16.8478L4.89649 24.7727C4.51359 25.5577 4.83849 26.4977 5.62298 26.8807C6.40757 27.2637 7.34556 26.9407 7.72845 26.1557L10.1539 21.1858V26.7617V27.9467V29.0937V38.3606C10.1539 39.2336 10.8549 39.9376 11.7289 39.9376C12.6019 39.9376 13.3049 39.2336 13.3049 38.3606V29.0937H13.3419H14.0289H14.0639V38.3606C14.0639 39.2336 14.7679 39.9376 15.6409 39.9376C16.5138 39.9376 17.2168 39.2336 17.2168 38.3606V29.0937V27.9467V26.7617V21.1738L19.6478 26.1557C20.0308 26.9407 20.9708 27.2637 21.7558 26.8807C22.5398 26.4977 22.8628 25.5577 22.4798 24.7727L18.6108 16.8478C18.3408 16.2929 17.7918 15.9739 17.2168 15.9669V15.9589H14.0289H13.3419ZM34.3786 15.9589L31.1907 15.9609V15.9689C30.6187 15.9799 30.0717 16.2959 29.8027 16.8478L25.9337 24.7727C25.5507 25.5577 25.8757 26.4977 26.6597 26.8807C27.4447 27.2637 28.3827 26.9407 28.7657 26.1557L31.1907 21.1858C31.2507 24.5718 31.0197 27.2897 28.9747 31.2497H31.1907V38.3606C31.1907 39.2336 31.8926 39.9376 32.7656 39.9376C33.6386 39.9376 34.3416 39.2336 34.3416 38.3606V31.2497H35.1016V38.3606C35.1016 39.2336 35.8046 39.9376 36.6776 39.9376C37.5506 39.9376 38.2536 39.2336 38.2536 38.3606V31.2497H40.4745C38.6436 27.4307 38.2536 24.9367 38.2536 21.1738L40.6855 26.1557C41.0675 26.9407 42.0075 27.2637 42.7925 26.8807C43.5775 26.4977 43.8995 25.5577 43.5175 24.7727L39.6476 16.8478C39.3776 16.2929 38.8286 15.9739 38.2536 15.9669V15.9589H35.0656H34.3786Z" fill="#333333"/>
</svg>

<?xml version="1.0" encoding="UTF-8" standalone="no"?>
<!-- Created with Inkscape (http://www.inkscape.org/) -->
<svg id="svg8" xmlns:rdf="http://www.w3.org/1999/02/22-rdf-syntax-ns#" xmlns="http://www.w3.org/2000/svg" xmlns:osb="http://www.openswatchbook.org/uri/2009/osb" height="48" width="48" version="1.1" xmlns:cc="http://creativecommons.org/ns#" viewBox="0 0 12.7 12.7" xmlns:dc="http://purl.org/dc/elements/1.1/">
 <title id="title4753">UIO-icon</title>
 <metadata id="metadata5">
  <rdf:RDF>
   <cc:Work rdf:about="">
    <dc:format>image/svg+xml</dc:format>
    <dc:type rdf:resource="http://purl.org/dc/dcmitype/StillImage"/>
    <dc:title>UIO-icon</dc:title>
    <dc:creator>
     <cc:Agent>
      <dc:title>Joaquín Urbano</dc:title>
     </cc:Agent>
    </dc:creator>
    <dc:rights>
     <cc:Agent>
      <dc:title>GPL</dc:title>
     </cc:Agent>
    </dc:rights>
   </cc:Work>
  </rdf:RDF>
 </metadata>
 <g id="layer1" transform="translate(0,-284.3)">
  <path id="rect4902" d="m13.689 8.0977a3.5 3.5 0 0 0 -3.5 3.5003 3.5 3.5 0 0 0 3.5 3.5 3.5 3.5 0 0 0 3.5 -3.5 3.5 3.5 0 0 0 -3.5 -3.5003zm21.038 0c-1.933 0-3.5 1.567-3.5 3.5003 0 1.933 1.567 3.5 3.5 3.5s3.5-1.567 3.5-3.5c0-1.9333-1.567-3.5003-3.5-3.5003zm-21.385 7.8613l-3.188 0.002v0.008c-0.5724 0.011-1.119 0.327-1.3884 0.879l-3.8691 7.925c-0.3829 0.785-0.058 1.725 0.7265 2.108 0.7846 0.383 1.7226 0.06 2.1055-0.725l2.4255-4.97v5.576 1.185 1.147 9.267c0 0.873 0.701 1.577 1.575 1.577 0.873 0 1.576-0.704 1.576-1.577v-9.267h0.037 0.687 0.035v9.267c0 0.873 0.704 1.577 1.577 1.577s1.576-0.704 1.576-1.577v-9.267-1.147-1.185-5.588l2.431 4.982c0.383 0.785 1.323 1.108 2.108 0.725 0.784-0.383 1.107-1.323 0.724-2.108l-3.869-7.925c-0.27-0.555-0.819-0.874-1.394-0.881v-0.008h-3.188-0.687zm21.037 0l-3.188 0.002v0.008c-0.572 0.011-1.119 0.327-1.388 0.879l-3.869 7.925c-0.383 0.785-0.058 1.725 0.726 2.108 0.785 0.383 1.723 0.06 2.106-0.725l2.425-4.97c0.06 3.386-0.171 6.104-2.216 10.064h2.216v7.111c0 0.873 0.702 1.577 1.575 1.577s1.576-0.704 1.576-1.577v-7.111h0.76v7.111c0 0.873 0.703 1.577 1.576 1.577s1.576-0.704 1.576-1.577v-7.111h2.221c-1.831-3.819-2.221-6.313-2.221-10.076l2.432 4.982c0.382 0.785 1.322 1.108 2.107 0.725s1.107-1.323 0.725-2.108l-3.87-7.925c-0.27-0.555-0.819-0.874-1.394-0.881v-0.008h-3.188-0.687z" fill-rule="evenodd" fill-opacity=".99505" transform="matrix(.26458 0 0 .26458 0 284.3)" fill="#333"/>
 </g>
</svg>
